picto/all-gender-toilet-framed.svg

<svg class="color-immutable" width="30" height="30" viewBox="0 0 30 30" fill="none" xmlns="http://www.w3.org/2000/svg"><path d="M29.9999 0H0V29.9999H29.9999V0Z" fill="#2D327D"/><path d="M25.4999 2.99999C26.3249 2.99999 26.9999 3.67499 26.9999 4.49999V25.4999C26.9999 26.3249 26.3249 26.9999 25.4999 26.9999H4.49999C3.67499 26.9999 2.99999 26.3249 2.99999 25.4999V4.49999C2.99999 3.67499 3.67499 2.99999 4.49999 2.99999H25.4999ZM25.4999 2.62499H4.49999C3.46612 2.62499 2.62499 3.46612 2.62499 4.49999V25.4999C2.62499 26.5338 3.46612 27.3749 4.49999 27.3749H25.4999C26.5338 27.3749 27.3749 26.5338 27.3749 25.4999V4.49999C27.3749 3.46612 26.5338 2.62499 25.4999 2.62499Z" fill="white"/><path d="M14.9999 23.9918C14.8974 23.9918 14.8144 23.9088 14.8144 23.8063V6.18134C14.8144 6.07889 14.8974 5.99587 14.9999 5.99587C15.1023 5.99587 15.1854 6.07889 15.1854 6.18134V23.8063C15.1854 23.9088 15.1023 23.9918 14.9999 23.9918Z" fill="white"/><path d="M19.2131 7.4883C19.2131 6.66037 19.8852 5.9883 20.7134 5.9883C21.5412 5.9883 22.2132 6.66037 22.2132 7.4883C22.2132 8.31622 21.5412 8.98829 20.7134 8.98829C19.8851 8.98829 19.2131 8.31622 19.2131 7.4883Z" fill="white"/><path d="M24.0001 10.8747V15.9654C24.0001 16.2604 23.7607 16.4996 23.4657 16.4996C23.1706 16.4996 22.9313 16.2604 22.9313 15.9654V11.6247H22.4626V23.2308C22.4626 23.655 22.1182 23.9995 21.6936 23.9995C21.2693 23.9995 20.9249 23.655 20.9249 23.2308V16.4809H20.4377V23.2308C20.4377 23.655 20.0933 23.9995 19.6688 23.9995C19.2445 23.9995 18.9 23.655 18.9 23.2308V11.6248H18.4313V15.9655C18.4313 16.2604 18.192 16.4997 17.8967 16.4997C17.6019 16.4997 17.3625 16.2604 17.3625 15.9655V10.8748C17.3625 10.0468 18.0344 9.37477 18.8625 9.37477H22.4999C23.3283 9.37469 24.0001 10.0468 24.0001 10.8747Z" fill="white"/><path d="M12.7607 15.7038C12.8381 15.9138 13.0382 16.0535 13.262 16.0535C13.5571 16.0535 13.7963 15.8141 13.7963 15.5191C13.7963 15.456 13.7853 15.3934 13.7635 15.3342L11.9295 10.356C11.7122 9.76617 11.1502 9.37452 10.5219 9.37452H8.82453C8.19618 9.37452 7.63443 9.76617 7.41693 10.356L5.58289 15.3342C5.56099 15.3934 5.55004 15.456 5.55004 15.5191C5.55004 15.8141 5.78929 16.0535 6.08441 16.0535C6.30814 16.0535 6.50816 15.9138 6.58564 15.7038H6.58594L8.08863 11.6246H8.58806L5.96321 18.7495H7.89168V23.2308C7.89168 23.6551 8.23638 23.9992 8.66066 23.9992C9.08516 23.9992 9.4294 23.6551 9.4294 23.2308V18.7495H9.9169V23.2308C9.9169 23.6551 10.2613 23.9992 10.6857 23.9992C11.1102 23.9992 11.4546 23.6551 11.4546 23.2308V18.7495H13.3834L10.7583 11.6246H11.258L12.7607 15.7038Z" fill="white"/><path d="M11.1425 7.4882C11.1425 6.66013 10.4702 5.98806 9.64224 5.98806C8.81439 5.98806 8.14232 6.66013 8.14232 7.4882C8.14232 8.31613 8.81439 8.98805 9.64224 8.98805C10.4703 8.98805 11.1425 8.31613 11.1425 7.4882Z" fill="white"/></svg>

<svg class="color-immutable" width="30" height="30" viewBox="0 0 30 30" fill="none" xmlns="http://www.w3.org/2000/svg"><path d="M30 0H0v30h30V0Z" fill="#2D327D"/><path d="M25.5 3c.825 0 1.5.675 1.5 1.5v21c0 .825-.675 1.5-1.5 1.5h-21c-.825 0-1.5-.675-1.5-1.5v-21C3 3.675 3.675 3 4.5 3h21Zm0-.375h-21A1.877 1.877 0 0 0 2.625 4.5v21c0 1.034.841 1.875 1.875 1.875h21a1.877 1.877 0 0 0 1.875-1.875v-21A1.877 1.877 0 0 0 25.5 2.625Z" fill="#fff"/><path d="M15 23.992a.185.185 0 0 1-.186-.186V6.181a.185.185 0 1 1 .371 0v17.625a.185.185 0 0 1-.185.186ZM19.213 7.488a1.5 1.5 0 1 1 3.002.002 1.5 1.5 0 0 1-3.002-.002ZM24 10.875v5.09a.534.534 0 0 1-1.069 0v-4.34h-.468V23.23a.77.77 0 0 1-1.538 0v-6.75h-.487v6.75a.77.77 0 0 1-1.538 0V11.625h-.469v4.34a.534.534 0 0 1-1.069 0v-5.09a1.5 1.5 0 0 1 1.5-1.5H22.5a1.5 1.5 0 0 1 1.5 1.5ZM12.76 15.704a.534.534 0 1 0 1.004-.37l-1.834-4.978a1.5 1.5 0 0 0-1.408-.981H8.825a1.5 1.5 0 0 0-1.408.981l-1.834 4.978a.533.533 0 0 0 .501.72c.224 0 .424-.14.502-.35l1.503-4.08h.5L5.962 18.75h1.929v4.48a.769.769 0 0 0 1.537 0v-4.48h.488v4.48a.769.769 0 0 0 1.538 0v-4.48h1.928l-2.625-7.125h.5l1.503 4.079ZM11.143 7.488a1.5 1.5 0 1 0-3.002.002 1.5 1.5 0 0 0 3.002-.002Z" fill="#fff"/></svg>
